icons/svg/language-python.svg

﻿<?xml version="1.0" encoding="utf-8"?>
<!DOCTYPE svg PUBLIC "-//W3C//DTD SVG 1.1//EN" "http://www.w3.org/Graphics/SVG/1.1/DTD/svg11.dtd">
<svg xmlns="http://www.w3.org/2000/svg" xmlns:xlink="http://www.w3.org/1999/xlink" version="1.1" baseProfile="full" width="24" height="24" viewBox="0 0 24.00 24.00" enable-background="new 0 0 24.00 24.00" xml:space="preserve">
	<path fill="#000000" fill-opacity="1" stroke-width="0.2" stroke-linejoin="round" d="M 19.1428,7.49998C 20.7208,7.49998 22,8.77917 22,10.3571L 22,14.1429C 22,15.7208 20.7208,17 19.1428,17L 12,17C 12,17.3945 12.3198,17.9643 12.7142,17.9643L 17.0001,17.9643L 17.0001,19.6429C 17.0001,21.2209 15.7209,22.5001 14.1429,22.5001L 9.85717,22.5001C 8.27921,22.5001 7.00002,21.2209 7.00002,19.6429L 6.99993,15.8929C 6.99993,14.3149 8.27921,13.0357 9.85717,13.0357L 15.1071,13.0357C 16.6851,13.0357 17.9643,11.7565 17.9643,10.1785L 17.9643,7.49998L 19.1428,7.49998 Z M 14.8571,19.2857C 14.4626,19.2857 14.1428,19.5868 14.1428,20.1785C 14.1428,20.7703 14.4626,20.8928 14.8571,20.8928C 15.2516,20.8928 15.5714,20.7703 15.5714,20.1785C 15.5714,19.5868 15.2516,19.2857 14.8571,19.2857 Z M 4.85716,17.5C 3.27919,17.5 2,16.2208 2,14.6429L 2,10.8571C 2,9.27917 3.27919,7.99997 4.85716,7.99997L 12,7.99998C 12,7.60548 11.6802,7.03569 11.2858,7.03569L 6.99994,7.03569L 6.99994,5.35711C 6.99994,3.77914 8.27913,2.49995 9.85709,2.49995L 14.1428,2.49995C 15.7208,2.49995 17,3.77914 17,5.35711L 17,9.10713C 17,10.6851 15.7208,11.9643 14.1428,11.9643L 8.8929,11.9643C 7.31493,11.9643 6.03574,13.2435 6.03574,14.8215L 6.03573,17.5L 4.85716,17.5 Z M 9.14289,5.7143C 9.53738,5.7143 9.85718,5.4132 9.85718,4.82147C 9.85718,4.22973 9.53739,4.10723 9.1429,4.10723C 8.74841,4.10723 8.42861,4.22973 8.42861,4.82147C 8.42861,5.4132 8.7484,5.7143 9.14289,5.7143 Z "/>
</svg>

<svg xmlns="http://www.w3.org/2000/svg" version="1.1" baseProfile="full" width="24" height="24" viewBox="0 0 24.00 24.00" xml:space="preserve"><path fill="#000" fill-opacity="1" stroke-width=".2" stroke-linejoin="round" d="M19.143 7.5C20.72 7.5 22 8.78 22 10.357v3.786C22 15.72 20.72 17 19.143 17H12c0 .395.32.964.714.964H17v1.68c0 1.577-1.28 2.856-2.857 2.856H9.857C8.28 22.5 7 21.22 7 19.643v-3.75c0-1.578 1.28-2.857 2.857-2.857h5.25c1.578 0 2.857-1.28 2.857-2.857v-2.68h1.18zm-4.286 11.786c-.394 0-.714.3-.714.892 0 .592.32.715.714.715.395 0 .714-.123.714-.715 0-.59-.318-.892-.713-.892zm-10-1.786C3.28 17.5 2 16.22 2 14.643v-3.786C2 9.28 3.28 8 4.857 8H12c0-.395-.32-.964-.714-.964H7v-1.68C7 3.78 8.28 2.5 9.857 2.5h4.286C15.72 2.5 17 3.78 17 5.357v3.75c0 1.578-1.28 2.857-2.857 2.857h-5.25c-1.578 0-2.857 1.28-2.857 2.857v2.68h-1.18zM9.143 5.714c.394 0 .714-.3.714-.893 0-.59-.32-.713-.714-.713-.395 0-.714.123-.714.714 0 .593.318.894.713.894z"/></svg>
